X:1
T:Title
%%score { ( 1 4 ) | ( 2 3 ) }
L:1/8
Q:1/4=120
M:6/4
K:Bb
V:1 treble nm="Grand Piano"
V:4 treble 
V:2 bass 
V:3 bass 
V:1
 [DF]2 [DF]2 [DF]2 [DF] [B,D]3 [CE]2 | [DF]2 [Fd]2 [Ec]2 [DB]6 | c3 c c2 c B3 c2 | [Fd]12 | %4
w: B.~D.~Ackley * * * * *||||
 [DF]2 [DF]2 [DF]2 [DF] [B,D]3 [CE]2 | [DF]2 [Fd]2 [Ec]2 [DB]6 | A2 c2 c2 [=Ec]2 [EB]2 [EG]2 | %7
w: |||
 z2 A2 c2 [Ae]6 | [Fd]2 [Fd]2 [Fd]2 [Fd] [Ec]3 [DB]2 | [GB] [FA]3 [EG]2 [DF]6 | %10
w: |||
 [DB]2 [DB]2 [DB]2 [Fd] [Fc]3 [FB]2 |[M:17/8] f-f-f-f-f-f-f-f-f-f-f-f- f3 z2 | %12
w: ||
[M:6/4] [Fd] [Fd]3 [Fd]2 [Fd] [Ec]3 [DB]2 | [GB]2 [FA]2 [EG]2 [DF]4 [DF]2 | %14
w: ||
 F2 A2 c2 [Ae] [Ae]3 [EA]2 | [DB]12 |] %16
w: ||
V:2
 [B,,B,]2 [B,,B,]2 [B,,B,]2 [B,,B,] [B,,F,]3 [B,,F,]2 | [B,,B,]2 [B,,B,]2 [B,,F,]2 [B,,B,]6 | %2
 [F,A,E]3 [F,A,E] [F,A,E]2 [F,A,E] [G,B,D]3 [F,A,F]2 | B,2- [D,B,-]2 [F,B,]2 B,6 | %4
 [B,,B,]2 [B,,B,]2 [B,,B,]2 [B,,B,] [B,,F,]3 [B,,F,]2 | [B,,B,]2 [B,,B,]2 [B,,F,]2 [B,,B,]6 | %6
 [F,CF]2 [F,A,F]2 [F,A,F]2 [C,G,]2 [C,G,]2 [C,B,]2 | [F,A,]6 [F,C]6 | %8
 [B,,B,]2 [B,,B,]2 [B,,B,]2 [B,,B,] [B,,F,]3 [B,,B,]2 | [E,B,] [E,B,]3 [E,B,]2 [B,,B,]6 | %10
 [B,,F,]2 [B,,F,]2 [B,,F,]2 [B,,B,] [C,A,]3 [D,B,]2 | %11
[M:17/8] [A,F]2 C2 D-D- D3 E-E-E- E3 [F,A,F]2 | %12
[M:6/4] [B,,B,] [B,,B,]3 [B,,B,]2 [B,,B,] [B,,F,]3 [B,,B,]2 | %13
 [E,B,]2 [E,B,]2 [E,B,]2 [B,,B,]4 [B,,B,]2 | [F,A,E]2 [F,CE]2 [F,A,E]2 [F,C] [F,C]3 [F,C]2 | %15
 [B,,B,]12 |] %16
V:3
 x12 | x12 | x12 | .B,,6 z6 | x12 | x12 | x12 | x12 | x12 | x12 | x12 | %11
[M:17/8] F,-F,-F,-F,-F,-F,-F,-F,-F,-F,-F,-F,- F,3 z2 |[M:6/4] x12 | x12 | x12 | x12 |] %16
V:4
 x12 | x12 | x12 | x12 | x12 | x12 | x12 | F6 z6 | x12 | x12 | x12 | %11
[M:17/8] z2 A2 B-B- B3 c-c-c- c3 e2 |[M:6/4] x12 | x12 | x12 | x12 |] %16

